X:1
T:Clairières dans le ciel
T:Demain fera un an
T:à mon cher ami ROGER DUCASSE
T:Clairières dans le ciel
T:Lili Boulanger
T:13. Demain fera un an 
T:Francis Jammes
T:Creative Commons copyright waiver (CC0 1.0 Universal)
T:Creative Commons copyright waiver (CC0 1.0 Universal)
T:Creative Commons copyright waiver (CC0 1.0 Universal)
T:Creative Commons copyright waiver (CC0 1.0 Universal)
T:Creative Commons copyright waiver (CC0 1.0 Universal)
T:Creative Commons copyright waiver (CC0 1.0 Universal)
T:Creative Commons copyright waiver (CC0 1.0 Universal)
T:Creative Commons copyright waiver (CC0 1.0 Universal)
T:Creative Commons copyright waiver (CC0 1.0 Universal)
T:Creative Commons copyright waiver (CC0 1.0 Universal)
C:Lili Boulanger
Z:Francis Jammes
Z:Creative Commons copyright waiver (CC0 1.0 Universal)
%%score 1 { ( 2 4 7 ) | ( 3 5 6 8 ) }
L:1/8
Q:1/4=52
M:4/4
K:F
V:1 treble nm="Chant\nVoice"
V:2 treble nm="Piano"
V:4 treble 
V:7 treble 
V:3 bass 
V:5 bass 
V:6 bass 
V:8 bass 
V:1
"^Lent" z!p!"^Librement" d d2 z d d d | d2 d3/2 d/ d2 d !tenuto!c | d3/2 A/[Q:1/4=54] A2- A A A A | %3
w: De- main fe- ra un|an qu'à Au- daux je cueil-|\- lais les fleurs _ dont j'ai par-|
[Q:1/4=56]!<(! B2- (3B B B!<)![Q:1/4=58] (3B B B[Q:1/4=50]!>(! c- c/!>)! z/ | %4
w: lé, _ de la prai- rie mouil- lé- e.|
[Q:1/4=54] z2 z!f! !tenuto!d !tenuto!d !tenuto!d !tenuto!d2 | %5
w: C'est au- jour- d'hui|
 (3!tenuto!_e !tenuto!e e!<(! f3 (e !tenuto!g3/2!<)! g/ |!>(! !>!a4!>)! d2) z2 | %7
w: le plus beau jour des jours de|Pâ- ques.|
"^moins lent et plus agité"[Q:1/4=58] z B/ B/ (3c c c[Q:1/4=60]!<(! d2 c d!<)! | %8
w: Je me suis en- fon- cé dans l'a-|
[Q:1/4=62] (3f e!>(! !tenuto!d d4- d!>)! d |[Q:1/4=64] z2 (3B B B c2- c z | %10
w: zur des cam- pa- * gnes,|à tra- vers bois, _|
[Q:1/4=66] z2 (3c c c _d- d/ z/[Q:1/4=70] (3_e e e |!f![Q:1/4=74] _a6- a z | %12
w: à tra- vers prés, _ à tra- vers|champs. _|
[Q:1/4=52]"^Lent" z2"^profondément grave\n" D2 A3 A | d4- d !tenuto!d !tenuto!d !tenuto!d | %14
w: Com- ment, mon|cœur, _ n'es- tu pas|
 !tenuto!f8- | f2 !tenuto!e2 !tenuto!d3 !tenuto!c | d8- | d2 z2 z4 | %18
w: mort|_ de- puis un|an?|_|
"^Un peu moins lent"[Q:1/4=62] z2 z3/2!pp! D/ F4- | F z!<(! F2 F2 !tenuto!c2 | %20
w: Mon cœur,|_ je t'ai don-|
 =B3/2 G/ G2- G G D !tenuto!G!<)! |!p!!>(! G4!>)!!pp! F z!<(! F3/2 F/!<)! | %22
w: né en- co- * re ce- cal-|vai- re de re-|
!p!!<(! ^G2 G3/2 G/!<)!!mp! =B4- | %23
w: voir ce vil- la-|
 (3B =B z B2"^à l'aise"[Q:1/4=58]!<(! B B[Q:1/4=65] !tenuto!^A !tenuto!B!<)! | %24
w: * ge où j’a- vais tant souf-|
"^Animé"[Q:1/4=72] !tenuto!d4- d z z d |!>(! ^c4-!>)! c!mf! c!f! !tenuto!^g g | %26
w: fert, _ ces|ro- * ses qui sai-|
[Q:1/4=74]!<(! =f3 d f f!<)! _e =c |[Q:1/4=76]!>(! _e4!>)! _d z =A A | %28
w: gnaient de- vant le pres- by-|tè- re, ces li-|
[Q:1/4=78] =e2 e3/2 e/!>(! !>!^g3!>)!!f! e |[Q:1/4=80] z2!ff! =g g _e2 ^f f | %30
w: las qui me tu- ent|dans les tris- tes par-|
[Q:1/4=84]!>(! d4!>)![Q:1/4=74] G z z2 |[Q:1/4=64] z8[Q:1/4=54] | %32
w: ter- res,||
[M:2/4]"^Très lent"[Q:1/4=50] z2 z/!p! F F/ | F F/ F/ F2- | F F !tenuto!F/!<(! F/ F/!<)! F/ | %35
w: Je me|suis sou- ve- nu|_ de ma dé- tres- se an-|
!>(! !tenuto!_A3!>)!!p! F/ z/ |[Q:1/4=52] z!mp! G G/!<(! G/ G/ G/!<)! | %37
w: cien- ne,|et je ne sais com-|
!mf![Q:1/4=54] c3/2!mf!!<(! B/ B/ B/ A/ B/!<)! |!f![Q:1/4=56] d3/2!mf!!<(! =B/ e/ d/ ^c/ d/!<)! | %39
w: ment je ne suis pas tom-|bé sur l’o- cre du sen-|
!f![Q:1/4=62] f4- |[Q:1/4=66]!<(! f3/2 d/ e/ d/!<)! c3/4!ff! _a/4 || %41
w: tier,|_ le front dans la pous-|
[M:4/4]"^Vite"[Q:1/4=80]!>(! _a!>)!"^sec" _A/ z/"^Tempo I."[Q:1/4=52] z2 z2 z3/2!pp! c/ | %42
w: siè- re. Plus|
 d2 z2 z d d d | d3"^douloureux" (d !tenuto!e2!<(! (3d e g!<)! ||[M:3/4]!>(! =a4!>)! d2- | %45
w: rien. Je n'ai plus|rien, plus rien qui me sou-|tien- ne.|
 d) z z2 z2 | z2 z3/2!pp! c/ d- d/ z/ ||[M:4/4][Q:1/4=50] z d!p! d2- d d (3:2:2d2 d | %48
w: _|plus rien _|Pour- quoi _ fait- il si|
 !breath!d2 d3/2 !tenuto!d/ d2 !tenuto!d c | d8- |[Q:1/4=52] d2 z2 z4 |[Q:1/4=54] z8 | %52
w: beau et pour- quoi suis- je|né?|_||
[Q:1/4=56] z8 ||[M:2/2][Q:1/4=62] z8 |[Q:1/4=68] z8 |[Q:1/4=74] z8 |[Q:1/4=80] z8[Q:1/4=88] | %57
w: |||||
 z8[Q:1/4=62] ||[M:4/4][Q:1/4=62] z2 z!p! A A A A !tenuto!A | =c2 (A !tenuto!G F2 G !tenuto!A | %60
w: |J'au- rais vou- lu po-|ser sur vos cal- mes ge-|
 A6) (G !tenuto!A |!<(! F4- F G!<)! !tenuto!A !tenuto!d |!p!!>(! ^c4!>)! A) z (=d d | %63
w: noux la fa-|ti- gue qui rompt mon|â- me qui se|
!>(! _d4-!>)! d2) z (A | c c A !tenuto!G F2) (G !tenuto!A |!>(! A2 A G!>)! A3 A- | A) z z2 z4 | %67
w: cou- che ain-|si qu'u- ne pau- vresse au fos-|sé de la rou- te.|_|
 z8 | z2 z3/2!mf! d/ d4- | d z (3G G3/2 d/ d2- d z | %70
w: |Dor- mir.|_ Pou- voir dor- mir. _|
 z3/2"^déchirant" (!tenuto!.d/ =f2- f !tenuto!.d !tenuto!d !tenuto!.c | %71
w: Dor- mir _ à tout ja-|
 !tenuto!.d2)!p!"^doux" (3(d f!>(! g g3/2!>)! e/ a2- | %72
w: mais sous les a- ver- ses bleu-|
 a) z!pp! (3(g f !tenuto!e c3/2 e/ d- d/) z/ | z2!mf!!<(! !tenuto!d2!<)! !>!f3!>(! !>!f!>)! | %74
w: es, sous les ton- ner- res frais. _|Ne plus sen-|
 !tenuto!d8 |"^Agité"[Q:1/4=72] z2!p! _c2 _d3 =d |!<(! B4- B _c _d!<)! =d |!f! =g8- | %78
w: tir.|Ne plus sa-|voir _ vo- tre exis-|ten-|
!>(! g4-!>)! g z[Q:1/4=86]!mp! f g ||"^Vite" _e2 d e =B4- | =B2!<(! c c _e2 e3/2 e/ | %81
w: * ce. Ne plus|voir cet a- zur|_ en- glou- tir ces co-|
 ^f2-!<)! f/ z/!mp![Q:1/4=78] f g"^à l'aise" g g g |!<(! ^f3 f !tenuto!g g!<)! !tenuto!g g | %83
w: teaux _ dans ce ver- ti- ge|bleu qui mê- le l'air à|
 !tenuto!_a8- |[Q:1/4=72] a2- a z[Q:1/4=66] z4 ||[M:3/4]"^Vite"[Q:1/4=86] z2!mf! _A3 A | %86
w: l'eau,|_ _|ni ce|
 =B3- B/ z/!<(! B2!<)! |!f!!<(! !tenuto!e2 !tenuto!d2!<)! !tenuto!g2 | e6 | %89
w: vi- de où|je cherche en|vain|
!ff! !tenuto!e2 d2 !>!g2 | !>!e6- | e4-[Q:1/4=78] e z[Q:1/4=82] |[Q:1/4=74] z2!p! _A A (3A A _G | %93
w: vo- tre pré-|sen-|* ce.|Il me sem- ble sen-|
 _A3!<(! !tenuto!A!<)! !tenuto!_c!>(! c!>)! | _A3/2 A/ =d4- | d2- d/ z/ _c B c | %96
w: tir pleu- rer au|fond de moi,|_ _ d'un lourd san-|
 _A3/2 A/ A2- A/ z/ _c |!<(! d2 (3!tenuto!d!<)! d !tenuto!d!>(! !tenuto!f2- | %98
w: glot mu- et, _ quel-|qu'un qui n'est pas là.|
 f4-!>)! f-[Q:1/4=54] f/ z/[Q:1/4=68][Q:1/4=62] ||[M:4/4] z2 z!p! =B B2- B z | %100
w: _ _ _|J’é- cris. _|
!<(! z =B B !tenuto!B B2!<)! B !tenuto!B | !tenuto!=B- B/ !tenuto!A/!>(! !tenuto!B4!>)! B z | z8 | %103
w: Et la cam- pa- gne est so-|no- re de joi- e.||
 z8 ||[K:E][Q:1/4=114]"^Modéré"[Q:1/4=60] z4 z!pp! B/ B/ B B/ B/ | =d A A3 A A B | %106
w: |“Elle é- tait des- cen-|due au bas de la prai-|
!>(! B4!>)! E2 z!pp! E | F/ F/ G/ A/ (A2 A)!<(! A B/ !tenuto!B/!<)! =c/ =d/ | %108
w: ri- e, et|com- me la prai- ri- e é- tait tou- te fleu-|
!p!!>(! e2-[Q:1/4=54] e-!>)! e/ z/ z4 ||[K:F][M:2/4] z2 z3/2!p! c/ || %110
w: ri- * e"|Plus|
[M:4/4][Q:1/4=52]"^Tempo I." d8- | d2- d z d2 d !tenuto!c | !tenuto!d4- d z z (d | %113
w: rien.|_ _ Je n'ai plus|rien, _ plus|
 e4!<(! (3d2 e2!<)! g2 |!>(! !tenuto!a4!>)! d2) z2 | z4 z2!pp! c2 | d8- | %117
w: rien qui me sou-|tien- ne.|Plus|rien.|
 d2 z2!pp![Q:1/4=50] (c4[Q:1/4=44] ||[M:3/4][Q:1/4=50] d6-) | d6- | d6- | d6- | %122
w: _ Plus|rien.|_|||
[Q:1/4=46] d2 z2 z2 | z6 | z6 |] %125
w: |||
V:2
"^Lent" z8 | z8 | z8 | z8 |"^a tempo" z8 | z8 | z8 | %7
[K:bass]!p!"^animez petit a petit" !>![C,D,CD]8 | (B,2 !>!E,4!>(! ^G,2)!>)! | %9
"_sombre" [^C,=G,A,]2 [_E,_G,B,]2 C4 | ([^F,=B,]2"_cresc." [=E,_B,C]2 [=F,A,^C]2 [^C^D]2) | %11
[K:treble] ([=CE]2 [_E=G]2 [^F_B]2 [ce]2) |!ff!"^Lent" z2 ([aa']4 [d'd'']2) | %13
 ([^g^g']2 [^a^a']4 [=f=f']2) | ([dd']2 [aa']4 [d'd'']2 | [_a_a']2 [bb']4 [ff']2) | %16
 ([ee']2"_dim. molto" [ff']4 [cc']2) | ([Gg]2 [_A_a]4 [Cc]2)!pp! | %18
"_éteint"!pp!"^Un peu moins lent" (3([Dd][_Ac][Dd] (3[Ac][Dd][Ac] (3[Dd][Ac][Dd] (3[Ac][Dd][Ac]) | %19
 (3([Dd][_Ac][Dd] (3[Ac][Dd][Ac] (3[Dd][Ac][Dd] (3[Ac][Dd][Ac]) | %20
 (3([Dd][G=B][Dd] (3[GB][Dd][GB] (3[Dd][GB][Dd] (3[GB][Dd][GB]) | %21
!<(! (3([Dd][_Ac][Dd] (3[Ac][Dd][Ac] (3[Dd][Ac]!<)!!p![Dd]!<(! (3[Ac][Dd][Ac]) | %22
"^animez un peu" (3([Dd][^G=B][Dd] (3[GB][Dd][GB] (3[Dd][GB][Dd] (3[GB][Dd][GB]) | %23
 (3([Dd][^G=B][Dd] (3[GB][Dd][GB] (3[Dd][GB][Dd]!<)! (3[GB][Dd][GB]) | %24
"^Animé"!p! (3([_G=d][=DB][Gd] (3[DB][Gd][DB] (3[Gd][DB][Gd] (3[DB][Gd][DB]) | %25
 (3([^F^c][^CA][Fc] (3[CA][Fc][CA] (3[Fc][CA][Fc] (3[CA][Fc][CA]) | %26
"^accel." (3([_G=d][=D_B][Gd] (3[DB][Gd]!<(![DB] (3[Gd][DB][Gd] (3[DB]!<)![Gd][DB]) | %27
 (3([^F^c][^CA][Fc] (3[^DA][Fc][DA] (3[Fc][DA][Fc] (3[DA][Fc][DA]) | %28
 (3([Ee][Ac][Ee] (3[=Bc][Ee][Bc] (3[Ee][Bc][Ee] (3[Bc][Ee][Bc]) | %29
 (3([Gg][=B_e][Gg] (3[Be][Gg][Be] (3[Gg][Be][Gg] (3[Be][Gg][Be]) | %30
!ff! (3:2:4([Gg][=B_e][Gg]/) z/ z2"^rit." z2 z2 |!>(! z8!>)! |[M:2/4]"^Très lent" (=E F2 _G | %33
 =G _A3) | (=E F2 _G | G _A3) |!<(! (^F"^accel. poco" G2 ^G!<)! | A B3) | %38
!<(!"^accel. molto" !tenuto![=DG=d] !tenuto![^F=B^f]2!<)! !tenuto![Ada] | %39
 !tenuto![c_ec']!<(! !tenuto![=e_a=e']2 !tenuto![cec'] | !>![e_ae'] !>![cec']2!<)! !>![eae'] || %41
[M:4/4]!ff!"^Vite" (!>![gc'-g']"_sec"!>![^fc'f']/) z/"^Tempo I." z2 z4 | %42
[K:bass] z2!p! !tenuto!D6- | D8 ||[M:3/4]!pp! D6- | D6- | D6 ||[M:4/4]!p! D8 | %48
 (!tenuto![D,^F,B,D]4 !tenuto![E,^G,C]4) | [A,D-]8 |!<(! D2 z2!<)! !>![D,D-]4 | %51
!<(!"^animez" D2 z2!<)! !>![D,D]4 | ([_A,D]2 [_G,C]4 [_F,B,]2) || %53
[M:2/2][K:treble]!<(! ([^G,^G]2"^beaucoup" [^F,^F]2 E4)!<)! | ([^A,^A]2 [^G,^G]2!<(! ^F4)!<)! | %55
!f!!<(! ([Cc]2 [B,B]2) ([^D^d]2 [^C^c]2) | ([=F=f]2 [_E_e]2) ([^G^g]2 [^F^f]2)!<)! | %57
!fff!"^Vite" !>![=B_e=b]!>![_B_g_b]/ z/ z2 z4 || %58
[M:4/4]!p! (3([^CFA][EG][FA] (3[EG][FA][EG] (3[FA][EG][FA] (3[EG][FA][EG]) | %59
 (3([F=c][EGA][Fc] (3[EGA][Fc][EGA] (3[Fc][EGA][Fc] (3[EGA][Fc][EGA]) | %60
 (3([^CFA][EG][FA] (3[EG][FA][EG] (3[FA][EG][FA] (3[EG][FA][EG]) | %61
 (3(!tenuto![B,FA][EG][FA]!<(! (3[EG][FA][EG] (3[FA][EG][FA]!<)! (3[EG][FA][EG]) | %62
 (3([B,FA]!<(![EG][FA] (3[EG][FA]!<)![EG] (3[FA]!>(![EG][FA] (3[EG]!>)![FA][EG]) | %63
 (3(!>![B,FA][EG][FA] (3[EG][FA][EG] (3[FA][EG][FA] (3[EG][FA][EG]) | %64
 (3([Fc][EGA][Fc] (3[EGA][Fc][EGA] (3[Fc][EGA][Fc] (3[EGA][Fc][EGA]) | %65
 (3([FA][EG][FA] (3[EG][FA][EG] (3[FA][EG][FA] (3[EG][FA][EG]) | %66
 (3([F=c][EGA][Fc] (3[EGA][Fc][EGA]!>(! (3[Fc][EGA][Fc] (3[EGA][Fc][EGA])!>)! | %67
!p! (3([^CFA]!>(![EG][FA] (3[EG][FA][EG] (3[FA]"_en éteignant"[EG][FA] (3[EG]!fermata![FA]!>)!!pp!!fermata![EG]) | %68
[K:bass]!mf! !tenuto![D,B,D]8 | !>![D,G,B,D]8 | !>!D8 |!p! !>![D,A,D]8- | [D,A,D]8 | %73
!<(! ([C,D,]6!<)!!>(! [=B,,_E,]2 | [C,D,]8)!>)! | %75
[K:treble]!p!"^Agité" ([_GB]2 [F_c]2 !>![B_d]2 [_A=d]2) | %76
 ([_GB]2!<(! [F_c]2 !>![B_d]2 [_A=d]2)!<)! |!f!!<(! ([_eg]2 [d_a]2 !>![g_b]2!<)! [f=b]2) | %78
!f!!<(! ([_eg]2 [d_a]2 !>![g_b]2!<)! [f=b]2) ||"^Vite" ([C=G]2 [DF]2 [_E_B]2 [F_A]2) | %80
 ([=C=G]2 [=DF]2!<(! [_EB]2 [F_A]2) | ([^F^c]2!<)! [^G=B]2 [=Ae]2 [=Bd]2) | %82
!<(! ([^F^c]2 [^G=B]2 [Ae]2!<)! [=Bd]2) | %83
!f!!<(! (!>![_B_b]2 !>![_A_a]2!<)! !>![^c^c']2 !>![=B=b]2) | %84
!<(! (!>![_B_b]2 !>![_A_a]2!<)!"^cédez"!<(! !>![^c^c']2 !>![=B=b]2)!<)! || %85
[M:3/4]"^Vite"!8va(! ([=e=e']2 [dd']2 [gg']2 | [ee']4) ([ff']2 | %87
!<(! [=e=e']2 [dd']2!<)! [gg']2!8va)! |!8va(! [ee']4) ([ff']2 |!ff! [=e=e']2 [dd']2 [gg']2) | %90
!<(! ([=e=e']2 [dd']2 [gg']2)!8va)! |!8va(! ([=e=e']2!<)!"^rit." [dd']2 [gg']2)!8va)! | %92
!p! z!p! (!tenuto![ee']2 [dd']2 [=g=g']- | [gg']) ([ee']2"_sans nuances" [dd']2 [gg']- | %94
 [gg']) ([ee']2!<(! [dd']2!<)! g/-<[gg']/- | %95
 [gg'])(e/-<[ee']/- [ee']!>(!d/-<[dd']/- [dd']!>)!g/-<[gg']/- | %96
 [gg'])!pp! ([ee']2!<(! [dd']2 [gg']-!<)! | %97
 [gg'])(e'/-<[ee']/-!<(! [ee']d'/-<[dd']/-!<)! [dd']g'/-<[gg']/- | %98
 [gg']!>(!"_cédez"e'/-<[ee']/- [ee']d'/-<[dd']/-!>)! [dd']g/4-[Gg]/4) z/ || %99
[M:4/4][K:bass]!pp! [=B,,=B,]8- | [=B,,=B,]8!p! | !arpeggio![=B,,=B,]8-!mp! |!f! [B,,B,]8- | %103
 [=B,,=B,]8 ||[K:E][K:treble]!pp!"^Modéré" (FE) (fe) (f'e') (fe) | %105
[K:bass] (E=C)[K:treble] (e=c) (e'=c') (ec) | (FE) (fe) (f'e') (fe) | %107
 (E=C) (e!<(!=c) (e'=c')!<)! (ec) |!p!!>(!!>(! E2-!>)! E z!>)!!>(! !>![Ee]2-!>)! [EBe] z || %109
[K:F][M:2/4] z4 ||[M:4/4]"^Tempo I." z8 | z8 | z8 | z8 |[K:bass] !tenuto![D,A,D]8 | D8 | [A,D]8 | %117
!pp! D8 ||[M:3/4][K:treble]!p!!8va(! ([ee']2 [dd']2 [gg']2 | [ee']6) | %120
!<(! ([ee']2 [dd']2 [gg']2)!<)! |!>(! ([=c'=c'']2 [_b_b']2 [e'e'']2)!>)! |!pp! [a'd''a'']6- | %123
 [a'd''a'']!8va)! z z2[K:bass]!ppp! (.[D,A,]2 | .[D,A,]2) z2 z2 |] %125
V:3
!p! ([D,,,D,,]2 [A,,,A,,]4 [D,,D,]2 | [^F,,,^F,,]2 [B,,,B,,]4 [E,,,E,,]2) | %2
 ([D,,,D,,]2 [A,,,A,,]4 [D,,D,]2 | [^F,,,^F,,]2 [B,,,B,,]4 [E,,,E,,]2) | %4
"^plus sonore" ([D,,,D,,]2 (A,,,/4A,,7/4-)!<(! A,,2 (D,,/4D,7/4)!<)! | %5
 (^F,,,/4^F,,7/4) (B,,,/4B,,7/4-) B,,2 (=E,,,/4E,,7/4)) | %6
 ((D,,,/4D,,7/4) (A,,,/4A,,7/4-) A,,2 (D,,/4D,7/4)) | ([_A,,,_A,,]2 [B,,,B,,]4!<(! [^F,,,^F,,]2) | %8
 ([=F,,,=F,,]2!<)! !>![^G,,,^G,,]4 [E,,,E,,]2) | ([_E,,A,,]2 [C,,B,,]2 ^F,,2 =F,,2) | %10
 ([^G,,D,]2 [^F,,C,]2 =B,,2 [A,,=G,]2) | ([D,^G,]2 [F,=B,]2 [_A,D]2 [D^G]2) | %12
 z2[K:treble] ([A,A]4 [Dd]2) |[K:bass] z2 ^A,4 =F,2 | z2[K:treble] ([A,A]4 [Dd]2) | %15
[K:bass] z2[K:treble] ([B,B]4 [F,F]2) |[K:bass] ([E,E]2 [F,F]4 [C,C]2) | %17
 ([G,,G,]2 [_A,,_A,]4 [C,,C,]2) |[K:treble]"_" (3(FGF (3GFG (3FGF (3GFG) | %19
 (3(FGF (3GFG (3FGF (3GFG) | (3(FGF (3GFG (3FGF (3GFG) | (3(FGF (3GFG (3FGF (3GFG)[K:bass] | %22
[K:treble]!pp! (3(=F=GF (3GFG (3FGF (3GFG) | (3(F=GF (3GFG (3FGF (3GF!mf!G)[K:bass] | %24
!mf!"_en dehors" (!>!F2 !>!_E4 B,2) |{^F,,^C,=A,} (^D2!<(! ^C4!<)! ^G2) | %26
{E,,_B,,_G,} (!>!=F2 !>!_E4 _B,2) | (^D2!<(! ^C4!<)! ^G2)({A,,E,=C} | %28
[K:treble] (!>!=B2) !>!A4 !>!E-)[K:bass] x{C,G,_E} |[K:treble] (!>!=B2 !>!_B4 !>!^F2) | %30
 (!>!=B2!>(! !>!_B4[I:staff -1] ^F2-!>)! |[I:staff +1][K:bass][I:staff -1] F4 =F4) | %32
[M:2/4]!p![I:staff +1] [_A,,_D,]4 | [G,,=D,]4!8vb(!!8vb)! | [_A,,_D,]4 | [G,,=D,]4!8vb(!!8vb)! | %36
!mp! [B,,=E,]4 |!mf! [A,,_E,]4!8vb(!!8vb)! | %38
!mf! !tenuto![=E,_B,] !tenuto![^G,D]2!f! !tenuto![=B,=F] | %39
[K:treble] !tenuto![D^G]!f! !tenuto![F=B]2 !tenuto![DG] | !>![F=B] !>![D^G]2 !>![FB] || %41
[M:4/4] [_Ad]-[Ad]/ z/ z2 z4 |[K:bass] z8 | z2 .[^F,,,^F,,]2 z4 || %44
[M:3/4] .[=F,,,=F,,]2 .[_E,,,_E,,]2 z .[_A,,,_A,,] | .[F,,,F,,]2 .[_E,,,_E,,]2 z .[_G,,,_G,,] | %46
 .[F,,,F,,]2 .[_E,,,_E,,] z z2 ||[M:4/4] ([D,,,D,,]2 [A,,,A,,]4 [D,,D,]2 | %48
 [^F,,,^F,,]2 [B,,,B,,]4 [E,,,E,,]2) | ([D,,,D,,]2 [A,,,A,,]4 [D,,D,]2 | %50
 [^F,,,^F,,]2 [=F,,,=F,,]4 [_E,,,_E,,]2) | ([_A,,,_A,,]2 [_G,,,_G,,]4 [F,,,F,,]2) | %52
 z4"^m.d.""^m.g." !>![=D,=D]4- ||[M:2/2] [D,D]2 !>![^D,^D]2 [E,E]4- | %54
 [E,E]2 [^E,^E]2[I:staff -1] [^F,C]2 [=E,_B,]2 |[I:staff +1] (^F,2 =G,2) (=A,2 ^A,2) | %56
 (=B,2 =C2) (=D2 _E2) |[K:treble] !>![_D_E=G]"_sec"!>![CE_G]/ z/ z2 z4 || %58
[M:4/4][K:bass] (3z (^CE (3CEC (3ECE (3CEC) | (3(E=CE (3CEC (3ECE (3CEC) | %60
 (3z (^CE (3CEC (3ECE (3CEC) | (3z (B,D (3B,DB, (3DB,D (3B,DB,) | %62
 (3z (B,^C (3B,CB,) (3(CB,C (3B,CB,) | (3z (B,_D (3B,DB, (3DB,D (3B,DB,) | %64
 (3z (CA, (3CA,C (3A,CA, (3CA,C) | (3z (^CE (3CEC (3ECE (3CEC) | (3z (=CA, (3CA,C (3A,CA, (3CA,C) | %67
 (3z (^CE (3CEC (3ECE (3CEC) | !tenuto![_A,,,_A,,]2 !tenuto![_G,,,_G,,]4 !tenuto![F,,,F,,]2 | %69
 !>![E,,,E,,]6 !>![F,,,F,,]2 | ([^F,,,^F,,]2 [=F,,,=F,,]4 [_E,,,_E,,]2) | %71
{/[B,,,,B,,,]} !>![B,,,F,,B,,]8- | [B,,,F,,B,,]8 | ([_G,,_A,,]6!8vb(! [_D,,=G,,]2!8vb)! | %74
 [_G,,_A,,]8)!8vb(!!8vb)! | [B,,,,B,,,] [B,,,B,,]2 [B,,,B,,] [B,,,B,,] [B,,,B,,]2 [B,,,B,,] | %76
 [B,,,,B,,,] [B,,,B,,]2 [B,,,B,,] [B,,,B,,] [B,,,B,,]2 [B,,,B,,] | %77
 [F,=B,_E] [G,,,G,,]2 [G,,,G,,] (!>!G2 F2) | [F,=B,_E] [G,,,G,,]2 [G,,,G,,] (!>!G2 F2) || %79
 C,4 _D,4 | =C,4 _D,4 | =E,4 =G,4 | =E,4 =G,4 | !>![_C_E]4 !>![=D^F]4 | !>![_C_E]4 !>![D^F]4 || %85
[M:3/4][K:bass]!mf! [B,,,B,,]/F,/_A,/C/ D/C/A,/F,/ B,,/F,/A,/C/ | %86
 [^G,,,^G,,]/D,/E,/=B,/ D/B,/E,/D,/ G,,/D,/E,/B,/ | [_B,,,_B,,]/F,/_A,/C/ D/C/A,/F,/ B,,/F,/A,/C/ | %88
 [^G,,,^G,,]/D,/E,/=B,/ D/B,/E,/D,/ G,,/D,/E,/B,/ | [_B,,,_B,,]/F,/_A,/C/ D/C/A,/F,/ B,,/F,/A,/C/ | %90
[K:treble] B,/F/_A/c/ d/c/A/F/ B,/F/A/c/ | (3_Bf_a d' z z2 | %92
"_un peu en dehors" _A/4!tenuto!B7/4- B2 A/4!tenuto!_c7/4 | %93
 _A/4!tenuto!B7/4-!<(! B2!<)! A/4!tenuto!_c7/4 | _A/4!tenuto!B7/4- B2 A/4!tenuto!_c7/4 | %95
 _A/4!tenuto!B7/4- B2 A/4!tenuto!_c7/4 | _A/4!tenuto!B7/4- B2 A/4!tenuto!_c7/4 | %97
 _A/4!tenuto!B7/4-!<(! B2!<)! A/4!tenuto!_c7/4 | _A/4!tenuto!B7/4- B2- B-B/ z/ || %99
[M:4/4][K:bass] !wedge![^G,,,^G,,]2 !wedge![=G,,,=G,,]2 z2 !wedge![F,,,F,,]2 | %100
 !wedge![A,,,A,,]2!<(! !wedge![D,,D,]2!<)! z2!<(! !arpeggio!!wedge![G,,G,]2 | %101
 (^C,,/4[C,,^C,]7/4) (F,,/4!<)![F,,F,]7/4-)!<(! [F,,F,]2 (A,,,/4[A,,,A,,]7/4) | %102
 (D,,/4!<)![D,,D,]7/4) (G,,,/4[G,,,G,,]7/4) z2!>(! !arpeggio!.[A,,,A,,]2 | %103
!pp! !arpeggio!.[F,,,F,,]2!>)! !arpeggio!.[F,,,F,,]2 z4 || %104
[K:E] [E,,B,,]2 [E,B,]2[K:treble] [EB]2[K:bass] [E,B,]2 | %105
 [=D,,A,,]2 [=D,A,]2[K:treble] [=DA]2[K:bass] [D,A,]2 | %106
!<(! [E,,B,,]2 [E,B,]2!<)![K:treble]!>(! [EB]2[K:bass] [E,B,]2!>)! | %107
 [=D,,A,,]2 [=D,A,]2[K:treble] [=DA]2[K:bass] [D,A,]2 | %108
[K:bass]"^m.g." E,2- E, z [=C,=G,]2- [C,G,] z ||[K:F][M:2/4] z4 || %110
[M:4/4]!p! ([D,,,D,,]2 [A,,,A,,]4 [D,,D,]2 | [_A,,,_A,,]2 [B,,,B,,]4 [F,,,F,,]2) | %112
 ([D,,,D,,]2 [=A,,,=A,,]4!<(! [D,,D,]2 | [^F,,,^F,,]2!<)! [B,,,B,,]4 [E,,,E,,]2) | %114
 ([D,,,D,,]2!<(! [A,,,A,,]4 [D,,D,]2!<)! | [^F,,,^F,,]2 [B,,,B,,]4 [E,,,E,,]2) | %116
 ([D,,,D,,]2 [A,,,A,,]4 [D,,D,]2 | [^F,,,^F,,]2 [B,,,B,,]4 [E,,,E,,]2) || %118
[M:3/4][K:treble] (!arpeggio![FG=B]6 | !arpeggio![EG_B^c]6) | ([FG=B]6 | !arpeggio![EG_B^c]6) | %122
[K:bass] z (.A,, .D,.A,.D[I:staff -1].A-) | A[I:staff +1] z z2 (.[D,,,D,,]2 | .[D,,,D,,]2) z2 z2 |] %125
V:4
 x8 | x8 | x2"^poco accel." x2 x2 x2 | x2 x2 x2"^rit." x2 | x8 | x8 | x8 |[K:bass] x8 | [D,D]8 | %9
 (x4 [=E,B,]2 [_E,A,]2) | x8 |[K:treble] x8 | [Adfa]8 | [=bd'f']8 | a8 | [c'f']8 | x8 | x8 | x8 | %19
 x8 | x8 | x8 | x8 | x8 | x8 | x8 | x8 | x8 | x8 | x8 | x8 | x8 |[M:2/4] =B,4 | [=B,F]4 | (_C4 | %35
 [=B,F]4) | =D4 | [^C=G]4 | x4 | x4 | x4 ||[M:4/4] x8 |[K:bass] x8 | z2 .[E,^A,]2 z4 || %44
[M:3/4] .[_E,=A,]2 .[D,G,]2 z .[_G,C] | .[_E,=A,]2 .[D,G,]2 z .[=E,_B,] | .[_E,A,]2 .[D,G,] z z2 || %47
[M:4/4] (D,2 A,4 D2) | x8 | (D,2 A,4 D2) | ([E,^A,]2 [_E,=A,]4 [D,G,]2) | %51
 ([_G,C]2 [_F,B,]4 [_E,A,]2) | x8 ||[M:2/2][K:treble] C4 [E,_B,]2 [=D,_A,]2 | D4 x4 | =E4 =G4 | %56
 =A4 =c4 | x8 ||[M:4/4] x8 | x8 | x8 | x8 | x8 | x8 | x8 | x8 | x8 | x8 |[K:bass] x4!<(! x4!<)! | %69
 x8 | ([E,^A,]2 [_E,=A,]4!>(! [D,G,]2)!>)! | x8 | x8 | x8 | x8 |[K:treble] [_A,D]4 [_CF]4 | %76
 [_A,D]4 [_CF]4 | [F=B]4 [_Ad]4 | [F=B]4 [_Ad]4 || _A,4 _C4 | _A,4 _C4 | =D4 =F4 | D4 =F4 | %83
 _e4 ^f4 | _e4 ^f4 ||[M:3/4]!8va(! e/_a/c'/a/ d/a/c'/a/ g/a/c'/a/ | %86
 e/=b/d'/b/ e/b/d'/b/ f/b/d'/b/ | e/_a/c'/a/ d/a/c'/a/ g/a/c'/a/!8va)! | %88
!8va(! e/=b/d'/b/ e/b/d'/b/ f/b/d'/b/ | e/_a/c'/a/ d/a/c'/a/ g/a/c'/a/ | %90
 e/_a/c'/a/ d/a/c'/a/ g/a/c'/a/!8va)! | %91
!8va(! e/_a/c'/a/ d/a/c'/a/ g/a/!fermata!c'/!fermata!a/!8va)! | x6 | x6 | x6 | x6 | x6 | x6 | x6 || %99
[M:4/4][K:bass] x8 | x8 | x8 | x8 | x8 ||[K:E][K:treble] [G,G]2 [Gg]2 [gg']2 [Gg]2 | %105
[K:bass] [F,F]2[K:treble] [Ff]2 [ff']2 [Ff]2 | [G,G]2 [Gg]2 [gg']2 [Gg]2 | %107
 [F,F]2 [Ff]2 [ff']2 [Ff]2 | (=D_B,-) B, x (=d_B-) x2 ||[K:F][M:2/4] x4 ||[M:4/4] x8 | x8 | x8 | %113
 x8 |[K:bass] x8 | ([D,^F,B,]4!>(! [E,^G,C]4!>)! | D,8) | ([D,^F,B,]4"^rit." [E,^G,C]4) || %118
[M:3/4][K:treble]!8va(! !arpeggio![g=b]6 | [g_b^c']6 | [g=b]6 | !arpeggio![e'g']6 | x6 | %123
 x!8va)! x3[K:bass] x2 | x6 |] %125
V:5
 x8 | x8 | x8 | x8 | x2 A,,,4 D,,2 | ^F,,,2 B,,,4 E,,,2 | D,,,2 A,,,4 D,,2 | x8 | x8 | x8 | x8 | %11
 x8 | [F,B,DF]8[K:treble] |[K:bass] [^G,=B,DF^G]8 | [D,F,A,D]8[K:treble] | %15
[K:bass] [C,F,_A,C]8[K:treble] |[K:bass] x8 | x8 |[K:treble] [C,,,D,,]8 | x8 | x8 | %21
 x6 x7/4[K:bass]!f!{/!tenuto![^C,,^G,,]-} !wedge!x/4 |[K:treble] x8 | %23
 x6 x7/4[K:bass]{_E,,-_B,,_G,} x/4 | x8 | x8 | x6 x7/4{^F,,^C,A,} x/4 | x8 | %28
[K:treble] x7[K:bass] x |[K:treble] x8 | x8 |[K:bass] x8 |[M:2/4] x4 | z2!8vb(! _D,,,2!8vb)! | x4 | %35
 z2!8vb(! _D,,,2!8vb)! | x4 | z2!8vb(! _D,,,2!8vb)! | x4 |[K:treble] x4 | x4 ||[M:4/4] x8 | %42
[K:bass] x8 | x8 ||[M:3/4] x6 | x6 | x6 ||[M:4/4] x8 | x8 | x8 | x8 | x8 | %52
 [B,,,B,,]2 [_A,,,_A,,]4 [_G,,,_G,,]2 ||[M:2/2] [=A,,,=A,,]4 (!>![C,,C,]2 [B,,,B,,]2 | %54
 [=B,,,=B,,]4) (!>![D,,D,]2 [C,,C,]2 | !arpeggio![_D,,_D,]4) !arpeggio![=E,,=E,]4 | %56
 !arpeggio![^F,,^F,]4 !arpeggio![=A,,=A,]4 |[K:treble] x8 ||[M:4/4][K:bass] [A,,,A,,]8- | %59
 [A,,,A,,]8 | [A,,,A,,]8 | [G,,D,]8 | [G,,D,]8 | [G,,=D,]8 | A,,8 | A,,8 | A,,8 | A,,8 | x8 | x8 | %70
 x8 | x8 | x8 | z2!8vb(! B,,,,3 B,,,,!8vb)! z2 | z2!8vb(! B,,,,4 B,,,,2!8vb)! | x8 | x8 | %77
 x4 [_A,D] [A,D]2 [A,D] | x4 [_A,D] [A,D]2 [A,D] || F,, F,,2 F,, _A,, A,,2 A,, | %80
 F,, F,,2 F,, _A,, A,,2 A,, | !>!=B,, B,,2 B,, !>!=D, D,2 D, | !>!=B,, B,,2 B,, !>!D, D,2 D, | %83
 !>!F, F,2 F, !>!^G, G,2 G, | !>!=F, F,2 F, !>!^G, G,2 !fermata!G, ||[M:3/4][K:bass] x6 | x6 | x6 | %88
 x6 | x6 |[K:treble] x6 | x6 | _A!<(!A AA!<)! A!>(!A!>)! | _AA AA A!>(!A | _A!>)!A AA AA | %95
 _AA AA AA | _A!<(!A AA!<)! A!>(!A | _A!>)!A AA A!>(!A | %98
 _A!>)!!tenuto!A !tenuto!A!tenuto!A !tenuto!A!tenuto!A ||[M:4/4][K:bass] x8 | x8 | x8 | x8 | x8 || %104
[K:E] x4[K:treble] x2[K:bass] x2 | x4[K:treble] x2[K:bass] x2 | x4[K:treble] x2[K:bass] x2 | %107
 x4[K:treble] x2[K:bass] x2 |[K:bass] [=C,,=G,,]2- [C,,G,,] x x4 ||[K:F][M:2/4] x4 ||[M:4/4] x8 | %111
 x8 | x8 | x8 | x8 | x8 | x8 | x8 ||[M:3/4][K:treble] D D2 D2 D- | D D2 D2 D | D D2 D2 D- | %121
 D D2 D2 D |[K:bass] [D,,,A,,,D,,]6- | [D,,,A,,,D,,] x x2 x2 | x2 x4 |] %125
V:6
 x8 | x8 | x8 | x8 | x8 | x8 | x8 | x8 | x8 | x8 | x8 | x8 | %12
{/[B,,,,B,,,]-} [B,,,,B,,,]8[K:treble] |[K:bass]{/[E,,,E,,]-} [E,,,E,,]8 | [D,,,D,,]8[K:treble] | %15
[K:bass]{/[D,,,D,,]-} [D,,,D,,]8[K:treble] |[K:bass] x8 | x8 |[K:treble] B,,8 | x8 | x8 | %21
 x31/4[K:bass] x/4 |[K:treble] x8 | x31/4[K:bass] x/4 | x8 | x8 | x8 | x8 | %28
[K:treble] x7[K:bass] x |[K:treble] x8 | x8 |[K:bass] x8 |[M:2/4] x4 | x2!8vb(! x2!8vb)! | x4 | %35
 x2!8vb(! x2!8vb)! | x4 | x2!8vb(! x2!8vb)! | x4 |[K:treble] x4 | x4 ||[M:4/4] x8 |[K:bass] x8 | %43
 x8 ||[M:3/4] x6 | x6 | x6 ||[M:4/4] x8 | x8 | x8 | x8 | x8 | x8 ||[M:2/2] x8 | x8 | x8 | x8 | %57
[K:treble] x8 ||[M:4/4][K:bass] x8 | x8 | x8 | x8 | x8 | x8 | x8 | x8 | x8 | x8 | x8 | x8 | x8 | %71
 x8 | x8 | x2!8vb(! x4!8vb)! x2 | x2!8vb(! x6!8vb)! | x8 | x7 x7/8{/[G,,,G,,]} x/8 | %77
 x7 x7/8{/[G,,,G,,]} x/8 | x8 || x8 | x8 | x8 | x8 | x8 | x8 ||[M:3/4][K:bass] x6 | x6 | x6 | x6 | %89
 x6 |[K:treble] x6 | x6 | x6 | x6 | x6 | x6 | x6 | x6 | x6 ||[M:4/4][K:bass] x8 | x8 | x8 | x8 | %103
 x8 ||[K:E] x4[K:treble] x2[K:bass] x2 | x4[K:treble] x2[K:bass] x2 | x4[K:treble] x2[K:bass] x2 | %107
 x4[K:treble] x2[K:bass] x2 |[K:bass] x8 ||[K:F][M:2/4] x4 ||[M:4/4] x8 | x8 | x8 | x8 | x8 | x8 | %116
 x8 | x7 x7/8{/[D,,,D,,]-} x/8 ||[M:3/4][K:treble] x6 | x6 | x6 | x6 |[K:bass] x6 | x6 | x6 |] %125
V:7
 x8 | x8 | x8 | x8 | x8 | x8 | x8 |[K:bass] x8 | x8 | x8 | x8 |[K:treble] x8 | x8 | x2 ^A4 =F2 | %14
 x8 | x8 | x8 | x8 | x8 | x8 | x8 | x8 | x8 | x8 | x8 | x8 | x8 | x8 | x8 | x8 | x8 | x8 | %32
[M:2/4] x4 | x4 | x4 | x4 | x4 | x4 | x4 | x4 | x4 ||[M:4/4] x8 |[K:bass] x8 | x8 ||[M:3/4] x6 | %45
 x6 | x6 ||[M:4/4] x8 | x8 | x8 | x8 | x8 | x8 ||[M:2/2][K:treble] x8 | x8 | x8 | x8 | x8 || %58
[M:4/4] x8 | x8 | x8 | x8 | x8 | x8 | x8 | x8 | x8 | x8 |[K:bass] x8 | x8 | x8 | x8 | x8 | x8 | %74
 x8 |[K:treble] x8 | x8 | x8 | x8 || x8 | x8 | x8 | x8 | x8 | x8 ||[M:3/4]!8va(! x6 | x6 | %87
 x6!8va)! |!8va(! x6 | x6 | x6!8va)! |!8va(! x6!8va)! | x6 | x6 | x6 | x6 | x6 | x6 | x6 || %99
[M:4/4][K:bass] x8 | x8 | x8 | x8 | x8 ||[K:E][K:treble] x8 |[K:bass] x2[K:treble] x6 | x8 | x8 | %108
 x8 ||[K:F][M:2/4] x4 ||[M:4/4] x8 | x8 | x8 | x8 |[K:bass] x8 | x8 | x8 | x8 || %118
[M:3/4][K:treble]!8va(! x6 | x6 | x6 | x6 | x6 | x!8va)! x3[K:bass] x2 | x6 |] %125
V:8
 x8 | x8 | x8 | x8 | x8 | x8 | x8 | x8 | x8 | x8 | x8 | x8 | x2[K:treble] x6 | %13
[K:bass] x7 x7/8{/[D,,,D,,]} x/8- | x2[K:treble] x6 |[K:bass] x2[K:treble] x6 |[K:bass] x8 | %17
 x7 x7/8!ped!{/[C,,,D,,]-} x/8- |[K:treble] x8 | x8!ped-up! | x8 | x31/4[K:bass]!ped! x/4 | %22
[K:treble] x8 | x31/4[K:bass]!ped-up!!ped! x/4 | x8!ped-up! |!ped! x2!ped-up! x6 | %26
!ped! x2!ped-up! x23/4!ped! x/4!ped-up! | x8 |[K:treble]!ped! x2!ped-up! x5[K:bass] x | %29
[K:treble]!ped! x2!ped-up! x6 |!ped! x2!ped-up! x6 |[K:bass] x8 |[M:2/4] x4 | x2!8vb(! x2!8vb)! | %34
 x4 | x2!8vb(! x2!8vb)! | x4 | x2!8vb(! x2!8vb)! | x4 |[K:treble] x4 | x4 ||[M:4/4] x8 | %42
[K:bass] x8 | x8 ||[M:3/4] x6 | x6 | x6 ||[M:4/4] x8 | x8 | x8 | x8 | x8 | x8 ||[M:2/2] x8 | x8 | %55
 x8 | x8 |[K:treble] x8 ||[M:4/4][K:bass]!ped! x8!ped-up! |!ped! x8!ped-up! |!ped! x8!ped-up! | %61
!ped! x8!ped-up! |!ped! x8!ped-up! |!ped! x8!ped-up! |!ped! x8!ped-up! |!ped! x8!ped-up! | x8 | %67
 x8 | x8 | x8 | x8 | x8 | x8 | x2!8vb(! x4!8vb)! x2 | x2!8vb(! x6!8vb)! | x8 | x8 | x8 | x8 || x8 | %80
 x8 | x8 | x8 | x8 | x8 ||[M:3/4][K:bass]!ped! x6!ped-up! |!ped! x6!ped-up! |!ped! x6!ped-up! | %88
!ped! x6!ped-up! |!ped! x6!ped-up! |[K:treble]!ped! x6!ped-up! | x6 | x6 | x6 | x6 | x6 | x6 | x6 | %98
 x6 ||[M:4/4][K:bass] x8 | x8 | x8 | x8 | x8 ||[K:E]!ped! x4[K:treble] x2!ped-up![K:bass] x2 | %105
 x4[K:treble] x2[K:bass] x2 |!ped! x4[K:treble] x2!ped-up![K:bass] x2 | %107
 x4[K:treble] x2[K:bass] x2 |[K:bass] x8 ||[K:F][M:2/4] x4 ||[M:4/4] x8 | x8 | x8 | x8 | x8 | x8 | %116
 x8 | x7!ped! x ||[M:3/4][K:treble] x6!ped-up! | x6 | x6 | x6 |[K:bass] x6 | x6 | x6 |] %125

